X: 12202
T: Factory Smoke, The
R: hornpipe
M: 4/4
K: Gminor
dc|:BAG^F GABc|d2G2 G2ag|fedc BcdB|(3cdc (3BAG F2dc|
BAG^F GABc|dg^fa g3d|edcB cedc|1 B2G2 G2dc:|2 B2G2 G2ga||
|:bgdB gdBG|DGBd gdbg|afcA fcAF|CFAc dcAc|
BAG^F GABc|dg^fa g3d|edcB cedc|1 B2G2 G2ga:|2 B2G2 G2dc||

